icons/nodes_vect_y.svg

<?xml version="1.0" encoding="UTF-8" standalone="no"?>
<svg
   width="32"
   height="32"
   viewBox="0 0 32 32"
   version="1.1"
   xml:space="preserve"
   style="clip-rule:evenodd;fill-rule:evenodd"
   id="svg3893"
   sodipodi:docname="nodes_vect_y.svg"
   inkscape:version="1.1.2 (b8e25be833, 2022-02-05)"
   xmlns:inkscape="http://www.inkscape.org/namespaces/inkscape"
   xmlns:sodipodi="http://sodipodi.sourceforge.net/DTD/sodipodi-0.dtd"
   xmlns="http://www.w3.org/2000/svg"
   xmlns:svg="http://www.w3.org/2000/svg"
   xmlns:serif="http://www.serif.com/"><defs
   id="defs3897" /><sodipodi:namedview
   id="namedview3895"
   pagecolor="#ffffff"
   bordercolor="#666666"
   borderopacity="1.0"
   inkscape:pageshadow="2"
   inkscape:pageopacity="0.0"
   inkscape:pagecheckerboard="0"
   showgrid="false"
   inkscape:zoom="0.72596586"
   inkscape:cx="555.81126"
   inkscape:cy="557.18874"
   inkscape:window-width="1920"
   inkscape:window-height="1001"
   inkscape:window-x="-9"
   inkscape:window-y="-9"
   inkscape:window-maximized="1"
   inkscape:current-layer="svg3893" />
    <g
   transform="matrix(0.13796843,0,0,0.13796843,-2.0250336,-2.9983347)"
   id="g3891">
        <g
   id="Layer-1"
   serif:id="Layer 1">
            <g
   transform="translate(0,119.582)"
   id="g3877">
                <path
   d="m 226.893,31.874 v 2.447 c -2.954,0.398 -5.225,1.258 -6.813,2.58 -2.204,1.853 -5.689,6.902 -10.452,15.149 l -19.449,32.48 v 21.698 c 0,4.631 0.243,7.509 0.728,8.633 0.486,1.125 1.445,2.117 2.878,2.977 1.433,0.86 3.341,1.29 5.722,1.29 h 5.027 v 2.448 h -50.341 v -2.448 h 4.696 c 2.647,0 4.741,-0.463 6.286,-1.389 1.146,-0.617 2.05,-1.676 2.711,-3.175 0.486,-1.059 0.728,-3.837 0.728,-8.336 V 88.235 L 147.512,49.801 c -4.19,-7.586 -7.144,-12.051 -8.864,-13.396 -1.72,-1.345 -4.014,-2.04 -6.881,-2.084 v -2.447 h 43 v 2.447 h -1.919 c -2.602,0 -4.422,0.376 -5.457,1.125 -1.037,0.75 -1.555,1.544 -1.555,2.382 0,1.587 1.764,5.578 5.292,11.973 l 16.207,29.702 16.141,-27.056 c 4.014,-6.615 6.02,-11.003 6.02,-13.164 0,-1.191 -0.573,-2.183 -1.72,-2.977 -1.5,-1.103 -4.255,-1.764 -8.269,-1.985 v -2.447 z"
   style="fill:#73d216;fill-rule:nonzero"
   id="path3871" />
                <path
   d="M 165.288,88.764 137.2,38.986 l -6.906,-0.863 -2.813,-7.237 19.876,0.123 29.361,55.415 0.282,37.146 -25.089,-0.412 0.073,-5.897 11.932,-3.717 z m 36.832,-46.497 -7.832,-5.971 -0.155,-6.697 38.091,-0.024 -1.169,6.408 -7.88,3.545 -32.29,46.256 -3.58,-6.374 z"
   style="fill:#8ae234"
   id="path3873" />
                <path
   d="m 176.664,42.427 c 0.538,1.083 1.132,2.231 1.751,3.353 l 0.019,0.035 9.223,16.903 8.672,-14.535 c 0.01,-0.018 0.021,-0.035 0.032,-0.053 1.114,-1.838 2.158,-3.814 2.989,-5.478 -0.101,-0.008 -0.201,-0.015 -0.3,-0.02 -4.412,-0.243 -7.866,-3.891 -7.866,-8.311 v -2.447 c 0,-4.597 3.726,-8.323 8.323,-8.323 h 27.386 c 4.598,0 8.324,3.726 8.324,8.323 v 2.447 c 0,4.169 -3.084,7.694 -7.215,8.249 -1.085,0.146 -1.994,0.234 -2.581,0.715 -1.861,1.573 -4.574,5.982 -8.585,12.928 -0.022,0.038 -0.045,0.076 -0.067,0.113 l -18.266,30.505 v 19.397 c 0,1.666 0.095,3.422 0.175,4.604 0.248,0.001 0.527,-0.027 0.829,-0.027 h 5.027 c 4.598,0 8.324,3.727 8.324,8.323 v 2.448 c 0,4.596 -3.726,8.323 -8.324,8.323 h -50.341 c -4.597,0 -8.323,-3.727 -8.323,-8.323 v -2.448 c 0,-4.596 3.726,-8.323 8.323,-8.323 h 4.696 c 0.452,0 0.862,0.025 1.222,0.002 0.078,-1.109 0.181,-2.888 0.181,-4.579 V 90.37 L 140.223,53.82 c -2.978,-5.391 -6.396,-10.302 -6.859,-10.961 -0.445,-0.244 -1.046,-0.205 -1.725,-0.215 -4.546,-0.07 -8.194,-3.776 -8.194,-8.323 v -2.447 c 0,-4.597 3.726,-8.323 8.322,-8.323 h 43 c 4.596,0 8.322,3.726 8.322,8.323 v 2.447 c 0,3.944 -2.742,7.247 -6.425,8.106 z m -15.918,68.249 c 0.05,-0.021 0.099,-0.046 0.146,-0.074 0.111,-0.066 0.223,-0.13 0.336,-0.191 -0.154,0.083 -0.324,0.162 -0.482,0.265 z m 66.147,-78.802 h -27.386 v 2.447 c 4.014,0.221 6.769,0.882 8.269,1.985 1.147,0.794 1.72,1.786 1.72,2.977 0,2.161 -2.006,6.549 -6.02,13.164 L 187.335,79.503 171.128,49.801 c -3.528,-6.395 -5.292,-10.386 -5.292,-11.973 0,-0.838 0.518,-1.632 1.555,-2.382 1.035,-0.749 2.855,-1.125 5.457,-1.125 h 1.919 v -2.447 h -43 v 2.447 c 2.867,0.044 5.161,0.739 6.881,2.084 1.72,1.345 4.674,5.81 8.864,13.396 l 21.102,38.434 v 17.993 c 0,4.499 -0.242,7.277 -0.728,8.336 -0.661,1.499 -1.565,2.558 -2.711,3.175 -1.545,0.926 -3.639,1.389 -6.286,1.389 h -4.696 v 2.448 h 50.341 v -2.448 h -5.027 c -2.381,0 -4.289,-0.43 -5.722,-1.29 -1.433,-0.86 -2.392,-1.852 -2.878,-2.977 -0.485,-1.124 -0.728,-4.002 -0.728,-8.633 V 84.53 l 19.449,-32.48 c 4.763,-8.247 8.248,-13.296 10.452,-15.149 1.588,-1.322 3.859,-2.182 6.813,-2.58 z"
   style="fill:#0b1521"
   id="path3875" />
            </g>
            <path
   id="path6475-3-5"
   d="M 196.971,96.927 C 213.48,81.878 205.909,35.4 167.787,27.243 l 72.275,14.76 z"
   style="fill:#73d216;fill-rule:nonzero" />
            <path
   id="path6571"
   d="m 191.673,41.876 43.937,6.581"
   style="fill:none;fill-rule:nonzero;stroke:#8ae234;stroke-width:8.28px" />
            <path
   d="m 155.721,32.87 c 13.245,-7.647 32.508,0.883 42.99,19.037 10.481,18.154 8.236,39.101 -5.009,46.749 -13.246,7.647 -32.508,-0.883 -42.989,-19.038 -10.481,-18.153 -8.237,-39.101 5.008,-46.748 z"
   style="fill:#8ae234;stroke:#0b1521;stroke-width:8.32px;stroke-linecap:round;stroke-linejoin:round;stroke-miterlimit:1.5"
   id="path3881" />
            <path
   id="path6475-3-5-1"
   d="m 169.004,30.241 73.451,10.928 -42.848,52.309"
   style="fill:none;fill-rule:nonzero;stroke:#0b1521;stroke-width:8.32px;stroke-linecap:round;stroke-linejoin:round;stroke-miterlimit:32.2" />
            <path
   d="m 39.46,132.858 c -5.956,2.402 -12.885,0.155 -15.465,-5.016 -2.581,-5.169 0.16,-11.318 6.114,-13.72 l 134.18,-54.131 c 5.955,-2.402 12.885,-0.155 15.465,5.015 2.58,5.17 -0.159,11.319 -6.115,13.721 z"
   style="fill:#73d216"
   id="path3884" />
            <path
   d="m 42.574,140.576 c -10.09,4.07 -21.655,-0.257 -26.027,-9.016 -4.678,-9.376 -0.35,-20.8 10.448,-25.157 l 134.181,-54.13 c 10.088,-4.07 21.653,0.257 26.025,9.016 4.679,9.376 0.351,20.799 -10.448,25.156 z M 39.46,132.858 173.639,78.727 c 5.956,-2.402 8.695,-8.551 6.115,-13.721 -2.58,-5.17 -9.51,-7.417 -15.465,-5.015 l -134.18,54.131 c -5.954,2.402 -8.695,8.551 -6.114,13.72 2.58,5.171 9.509,7.418 15.465,5.016 z"
   style="fill:#0b1521"
   id="path3886" />
            <path
   d="m 23.883,127.689 c -0.649,-0.916 -3.206,-8.536 5.297,-13.21 L 165.218,59.646 c 7.428,-2.467 13.085,1.686 14.333,4.932 z"
   style="fill:#8ae234"
   id="path3888" />
        </g>
    </g>
</svg>

<?xml version="1.0" encoding="UTF-8" standalone="no"?>
<!DOCTYPE svg PUBLIC "-//W3C//DTD SVG 1.1//EN" "http://www.w3.org/Graphics/SVG/1.1/DTD/svg11.dtd">
<svg width="100%" height="100%" viewBox="0 0 1113 1113" version="1.1" xmlns="http://www.w3.org/2000/svg" xmlns:xlink="http://www.w3.org/1999/xlink" xml:space="preserve" xmlns:serif="http://www.serif.com/" style="fill-rule:evenodd;clip-rule:evenodd;">
    <g transform="matrix(4.16667,0,0,4.16667,0,0)">
        <g id="Layer-1" serif:id="Layer 1">
            <g transform="matrix(1,0,0,1,0,119.582)">
                <path d="M226.893,31.874L226.893,34.321C223.939,34.719 221.668,35.579 220.08,36.901C217.876,38.754 214.391,43.803 209.628,52.05L190.179,84.53L190.179,106.228C190.179,110.859 190.422,113.737 190.907,114.861C191.393,115.986 192.352,116.978 193.785,117.838C195.218,118.698 197.126,119.128 199.507,119.128L204.534,119.128L204.534,121.576L154.193,121.576L154.193,119.128L158.889,119.128C161.536,119.128 163.63,118.665 165.175,117.739C166.321,117.122 167.225,116.063 167.886,114.564C168.372,113.505 168.614,110.727 168.614,106.228L168.614,88.235L147.512,49.801C143.322,42.215 140.368,37.75 138.648,36.405C136.928,35.06 134.634,34.365 131.767,34.321L131.767,31.874L174.767,31.874L174.767,34.321L172.848,34.321C170.246,34.321 168.426,34.697 167.391,35.446C166.354,36.196 165.836,36.99 165.836,37.828C165.836,39.415 167.6,43.406 171.128,49.801L187.335,79.503L203.476,52.447C207.49,45.832 209.496,41.444 209.496,39.283C209.496,38.092 208.923,37.1 207.776,36.306C206.276,35.203 203.521,34.542 199.507,34.321L199.507,31.874L226.893,31.874Z" style="fill:rgb(115,210,22);fill-rule:nonzero;"/>
                <path d="M165.288,88.764L137.2,38.986L130.294,38.123L127.481,30.886L147.357,31.009L176.718,86.424L177,123.57L151.911,123.158L151.984,117.261L163.916,113.544L165.288,88.764ZM202.12,42.267L194.288,36.296L194.133,29.599L232.224,29.575L231.055,35.983L223.175,39.528L190.885,85.784L187.305,79.41L202.12,42.267Z" style="fill:rgb(138,226,52);"/>
                <path d="M176.664,42.427C177.202,43.51 177.796,44.658 178.415,45.78L178.434,45.815L187.657,62.718L196.329,48.183C196.339,48.165 196.35,48.148 196.361,48.13C197.475,46.292 198.519,44.316 199.35,42.652C199.249,42.644 199.149,42.637 199.05,42.632C194.638,42.389 191.184,38.741 191.184,34.321L191.184,31.874C191.184,27.277 194.91,23.551 199.507,23.551L226.893,23.551C231.491,23.551 235.217,27.277 235.217,31.874L235.217,34.321C235.217,38.49 232.133,42.015 228.002,42.57C226.917,42.716 226.008,42.804 225.421,43.285C223.56,44.858 220.847,49.267 216.836,56.213C216.814,56.251 216.791,56.289 216.769,56.326L198.503,86.831L198.503,106.228C198.503,107.894 198.598,109.65 198.678,110.832C198.926,110.833 199.205,110.805 199.507,110.805L204.534,110.805C209.132,110.805 212.858,114.532 212.858,119.128L212.858,121.576C212.858,126.172 209.132,129.899 204.534,129.899L154.193,129.899C149.596,129.899 145.87,126.172 145.87,121.576L145.87,119.128C145.87,114.532 149.596,110.805 154.193,110.805L158.889,110.805C159.341,110.805 159.751,110.83 160.111,110.807C160.189,109.698 160.292,107.919 160.292,106.228L160.292,90.37L140.223,53.82C137.245,48.429 133.827,43.518 133.364,42.859C132.919,42.615 132.318,42.654 131.639,42.644C127.093,42.574 123.445,38.868 123.445,34.321L123.445,31.874C123.445,27.277 127.171,23.551 131.767,23.551L174.767,23.551C179.363,23.551 183.089,27.277 183.089,31.874L183.089,34.321C183.089,38.265 180.347,41.568 176.664,42.427ZM160.746,110.676C160.796,110.655 160.845,110.63 160.892,110.602C161.003,110.536 161.115,110.472 161.228,110.411C161.074,110.494 160.904,110.573 160.746,110.676ZM226.893,31.874L199.507,31.874L199.507,34.321C203.521,34.542 206.276,35.203 207.776,36.306C208.923,37.1 209.496,38.092 209.496,39.283C209.496,41.444 207.49,45.832 203.476,52.447L187.335,79.503L171.128,49.801C167.6,43.406 165.836,39.415 165.836,37.828C165.836,36.99 166.354,36.196 167.391,35.446C168.426,34.697 170.246,34.321 172.848,34.321L174.767,34.321L174.767,31.874L131.767,31.874L131.767,34.321C134.634,34.365 136.928,35.06 138.648,36.405C140.368,37.75 143.322,42.215 147.512,49.801L168.614,88.235L168.614,106.228C168.614,110.727 168.372,113.505 167.886,114.564C167.225,116.063 166.321,117.122 165.175,117.739C163.63,118.665 161.536,119.128 158.889,119.128L154.193,119.128L154.193,121.576L204.534,121.576L204.534,119.128L199.507,119.128C197.126,119.128 195.218,118.698 193.785,117.838C192.352,116.978 191.393,115.986 190.907,114.861C190.422,113.737 190.179,110.859 190.179,106.228L190.179,84.53L209.628,52.05C214.391,43.803 217.876,38.754 220.08,36.901C221.668,35.579 223.939,34.719 226.893,34.321L226.893,31.874Z" style="fill:rgb(11,21,33);"/>
            </g>
            <path id="path6475-3-5" d="M196.971,96.927C213.48,81.878 205.909,35.4 167.787,27.243L240.062,42.003L196.971,96.927Z" style="fill:rgb(115,210,22);fill-rule:nonzero;"/>
            <path id="path6571" d="M191.673,41.876L235.61,48.457" style="fill:none;fill-rule:nonzero;stroke:rgb(138,226,52);stroke-width:8.28px;"/>
            <path d="M155.721,32.87C168.966,25.223 188.229,33.753 198.711,51.907C209.192,70.061 206.947,91.008 193.702,98.656C180.456,106.303 161.194,97.773 150.713,79.618C140.232,61.465 142.476,40.517 155.721,32.87Z" style="fill:rgb(138,226,52);stroke:rgb(11,21,33);stroke-width:8.32px;stroke-linecap:round;stroke-linejoin:round;stroke-miterlimit:1.5;"/>
            <path id="path6475-3-5-1" d="M169.004,30.241L242.455,41.169L199.607,93.478" style="fill:none;fill-rule:nonzero;stroke:rgb(11,21,33);stroke-width:8.32px;stroke-linecap:round;stroke-linejoin:round;stroke-miterlimit:32.2;"/>
            <path d="M39.46,132.858C33.504,135.26 26.575,133.013 23.995,127.842C21.414,122.673 24.155,116.524 30.109,114.122L164.289,59.991C170.244,57.589 177.174,59.836 179.754,65.006C182.334,70.176 179.595,76.325 173.639,78.727L39.46,132.858Z" style="fill:rgb(115,210,22);"/>
            <path d="M42.574,140.576C32.484,144.646 20.919,140.319 16.547,131.56C11.869,122.184 16.197,110.76 26.995,106.403L161.176,52.273C171.264,48.203 182.829,52.53 187.201,61.289C191.88,70.665 187.552,82.088 176.753,86.445L42.574,140.576ZM39.46,132.858L173.639,78.727C179.595,76.325 182.334,70.176 179.754,65.006C177.174,59.836 170.244,57.589 164.289,59.991L30.109,114.122C24.155,116.524 21.414,122.673 23.995,127.842C26.575,133.013 33.504,135.26 39.46,132.858Z" style="fill:rgb(11,21,33);"/>
            <path d="M23.883,127.689C23.234,126.773 20.677,119.153 29.18,114.479L165.218,59.646C172.646,57.179 178.303,61.332 179.551,64.578L23.883,127.689Z" style="fill:rgb(138,226,52);"/>
        </g>
    </g>
</svg>
